assets/sonr-icons/social-twitter.svg

<svg xmlns="http://www.w3.org/2000/svg" width="24" height="24" fill="none" viewBox="0 0 24 24"><path fill="#000" d="M20 8.00202V8.00002L21.875 5.97702C22.18 5.64702 21.906 5.11602 21.46 5.17402L19.111 5.48402C18.378 4.57802 17.256 3.99902 16 3.99902C13.791 3.99902 12 5.79002 12 7.99902C12 8.52602 12.102 9.03002 12.287 9.49102C9.291 9.42102 6.082 8.82802 4.46 5.61402C4.259 5.21702 3.684 5.19302 3.556 5.62002C2.382 9.54002 4.448 14.634 8.999 15.999C7.864 17.109 4.945 17.411 2.557 17.191C2.092 17.148 1.8 17.678 2.16 17.976C4.162 19.635 6.94 19.999 9.499 19.999C15.999 19.999 20.498 14.501 19.999 8.00102L20 8.00202Z"/></svg>

<svg xmlns="http://www.w3.org/2000/svg" width="24" height="24" fill="none"><path fill="currentColor" d="M20 8.002V8l1.875-2.023a.48.48 0 0 0-.415-.803l-2.349.31a4 4 0 0 0-6.824 4.007c-2.996-.07-6.205-.663-7.827-3.877-.201-.397-.776-.421-.904.006-1.174 3.92.892 9.014 5.443 10.379-1.135 1.11-4.054 1.412-6.442 1.192-.465-.043-.757.487-.397.785 2.002 1.659 4.78 2.023 7.339 2.023 6.5 0 10.999-5.498 10.5-11.998z"/></svg>
